assets/images/instapay(en).svg

<svg width="718" height="88" viewBox="0 0 718 88" fill="none" xmlns="http://www.w3.org/2000/svg">
<path d="M438.9 61.8C438.8 61.7 438.8 61.7 438.8 61.7L438.9 61.8Z" fill="black"/>
<path d="M543.6 29.5C538.8 49.4 519.7 64.8999 499.1 65.1999C487.1 65.3999 475.1 65.3 463.1 65.3H460.2C457.8 72.6 455.4 79.7999 453 86.9999H431.3C431.5 86.1999 431.6 85.5999 431.8 84.9999C433.7 78.9999 442.8 54.1999 446.8 42.7999C451.1 42.7999 461.5 42.9 461.9 42.9C476.8 42.9 491.7 42.9 506.5 42.9C513.6 42.9 519.4 38.2 520.9 31.5C521.9 27.1 519.5 23.6999 515.1 23.1999C513.9 23.0999 512.8 23.1 511.6 23.1C492.8 23.1 474 23.1 455.3 23.1H452.1C459.6 15.4 466.7 8.09996 474 0.599963H476.2C490.1 0.599963 504.1 0.499939 518 0.699939C521.5 0.699939 525 0.999951 528.4 1.89995C540.9 5.09995 546.9 16.1 543.6 29.5Z" fill="#8B4B9F"/>
<path d="M593.3 0.399994C596.1 1.19999 598.5 3.39999 600 5.79999C601.8 8.79999 602.5 12.1 603.4 15.5C604.4 19.2 605.2 23 606.2 26.8C608 34.3 609.9 41.8 611.8 49.3C614.8 61.3 617.8 73.3 620.7 85.3C620.8 85.7 620.9 86.2 621 86.9H538.1C545.1 79.3 551.8 72 558.6 64.6H588.1C585.4 54.3 582.8 44.2 580 33.6C563.4 51.6 547 69.3 530.6 87H503.5C504.4 86 505 85.2 505.7 84.5C527.5 60.7 549.4 37 571.1 13.2C574 9.99998 577.1 7 580.6 4.5C583.7 2.3 587.3 0 591.3 0C591.9 0.1 592.6 0.199994 593.3 0.399994Z" fill="#8B4B9F"/>
<path d="M611 0.699951H639C643.9 12.3 648.8 23.8 653.9 35.7C666.1 23.9 678 12.3 690 0.699951H717.3C717.5 0.899951 717.7 1.19996 717.9 1.39996C717.2 1.89996 716.3 2.29996 715.7 2.89996C696.7 20.9 677.7 38.9 658.8 56.9C657.8 57.9 656.9 59.1999 656.5 60.4999C653.5 69.2999 650.7 78.1 647.8 86.9H625.9C626.2 85.9 626.4 85.1 626.7 84.2C629.3 76.3 631.8 68.3999 634.5 60.4999C635.1 58.7999 635 57.4 634.3 55.8C626.8 38.2 619.4 20.6 611.9 2.89996C611.6 2.39996 611.4 1.69995 611 0.699951Z" fill="#8B4B9F"/>
<path d="M370.3 59.2999C371 62.0999 375.5 78.1999 377.8 86.2999C377.6 86.4999 377.3 86.6999 377.1 86.8999H294.1C301.1 79.2999 307.7 71.9999 314.5 64.5999H344.1C341.4 54.1999 338.7 44.0999 335.9 33.4999C319.2 51.4999 302.8 69.2999 286.5 86.8999H259.6C260.1 86.1999 260.4 85.6999 260.8 85.2999C284 60 307.2 34.5999 330.5 9.39992C332.7 6.99992 335.2 4.99992 337.9 3.39992C342.3 0.799925 347.9 -1.50008 352.6 1.89992C356.3 4.49992 357.9 8.99991 358.8 13.1999C360 18.6999 361.5 24.0999 362.8 29.5999C365.4 39.4999 367.9 49.4 370.3 59.2999Z" fill="#500B75"/>
<path d="M105.7 87.7C101.4 86.4 98.8 83.4 96.4 79.7C88.4 67.1 80.1 54.6 72 42.1C71.5 41.4 71 40.7 70.3 39.7C65.1 55.7 59.9 71.2999 54.8 86.9999H33C33.2 86.2999 33.3 85.5999 33.5 84.9999C41.4 60.7999 49.3 36.5 57.4 12.3C58.3 9.49996 60 6.69998 62 4.59998C67.6 -1.40002 76 -0.500037 80.5 6.39996C89.1 19.5 97.6 32.6 106.1 45.7C106.5 46.4 107 47.1 107.7 48.1C113 32 118.1 16.4 123.3 0.699951H145.1C144.9 1.59995 144.7 2.39995 144.4 3.19995C136.5 27.3 128.6 51.4 120.7 75.4C120.5 76.1 120.2 76.9 119.9 77.6C118.1 82.3 115.2 86 110.3 87.7H105.7Z" fill="#500B75"/>
<path d="M0 86.3C2.2 79.9 4.4 73.5999 6.5 67.1999C13.6 45.6999 20.6 24.1999 27.6 2.69992C27.8 2.09992 28 1.49993 28.3 0.799927H50.2C40.7 29.6999 31.3 58.4 21.9 87.3H0C0 86.9 0 86.6 0 86.3Z" fill="#500B75"/>
<path d="M241.9 0.599976C234.4 8.39998 227.4 15.7 220.4 23.1C214.7 23.1 209.1 23.1 203.5 23.1C192.5 23.1 181.5 23.1 170.5 23.1C166.6 23.1 164.9 25.1 165.2 29.3C166.3 29.5 167.6 29.9 168.9 29.9C180.2 29.9 191.5 29.8 202.8 30C206.5 30.1 210.3 30.4 213.8 31.5C224 34.6 228.6 43.9 226 55.2C221.8 73.5 205.2 86.9 186 87.1C164.8 87.3 143.6 87.2 122.4 87.2C122 87.2 121.7 87.1 120.6 87.1C127.9 79.5 134.9 72.2 141.9 64.9C145.5 64.9 149.2 64.9 152.8 64.9C165.8 64.9 178.8 65 191.8 64.8C194.7 64.8 197.6 63.8 200.3 62.8C201.7 62.3 203 60.8999 203.8 59.4999C205.5 56.7999 204.6 54.4 201.7 53.3C199.9 52.7 197.9 52.4 196 52.4C184.3 52.3 172.6 52.4 160.9 52.3C158 52.3 155.1 52 152.4 51.3C142.3 48.8 137.2 40.4 139.5 30.2C143 14.3 157.7 1.59996 174.1 0.899963C183.7 0.499963 193.4 0.699951 203.1 0.699951C214.9 0.699951 226.8 0.699951 238.6 0.699951C239.5 0.599951 240.4 0.599976 241.9 0.599976Z" fill="#500B75"/>
<path d="M255.4 86.9999H233.4C240.4 65.5999 247.3 44.5 254.3 23.1H225.1C232.5 15.3 239.5 8.09995 246.5 0.699951H319C311.7 8.29995 304.6 15.6 297.5 23H276.3C269.4 44.4 262.4 65.5999 255.4 86.9999Z" fill="#500B75"/>
<path d="M427.7 43.1999C427.1 43.5999 426.5 43.9999 425.9 44.4999C410.5 57.9999 393 73.4999 377.5 87.0999C370.5 87.0999 361 87.0999 354.4 87.0999L404.3 42.8999C403.7 41.7999 403.2 40.9999 402.8 40.1999C395.2 26.8999 387.6 13.5999 380.1 0.299927H403.5C403.8 1.09993 404.1 1.89995 404.5 2.59995C411.7 15.1999 419 27.8999 426.2 40.4999C426.6 41.1999 427 41.8999 427.7 43.1999Z" fill="#FD6E66"/>
<path d="M460.8 42.6L411.9 86.3L411.1 86.9999C404.1 87.0999 394.9 86.9999 388.2 86.4999C404.7 71.9999 421.2 57.4 437.7 42.8C429.5 28.5 421.4 14.3 413.3 0.199951H436.7C437 0.799951 437.2 1.49998 437.6 2.09998C445 15.1 452.1 27.4 459.4 40.4C459.8 41 459.4 40.5 460.8 42.6Z" fill="#FB6518"/>
</svg>

<?xml version="1.0" encoding="UTF-8"?>
<svg id="Layer_1" xmlns="http://www.w3.org/2000/svg" version="1.1" viewBox="0 0 718 88">
  <!-- Generator: Adobe Illustrator 29.5.1, SVG Export Plug-In . SVG Version: 2.1.0 Build 141)  -->
  <defs>
    <style>
      .st0 {
        fill: #500b75;
      }

      .st1 {
        fill: #fb6518;
      }

      .st2 {
        fill: #8b4b9f;
      }

      .st3 {
        fill: #fd6e66;
      }
    </style>
  </defs>
  <path d="M438.9,61.8l-.1-.1.1.1Z"/>
  <path class="st2" d="M543.6,29.5c-4.8,19.9-23.9,35.4-44.5,35.7-12,.2-24,.1-36,.1h-2.9c-2.4,7.3-4.8,14.5-7.2,21.7h-21.7c.2-.8.3-1.4.5-2,1.9-6,11-30.8,15-42.2,4.3,0,14.7.1,15.1.1h44.6c7.1,0,12.9-4.7,14.4-11.4,1-4.4-1.4-7.8-5.8-8.3-1.2-.1-2.3-.1-3.5-.1h-59.5c7.5-7.7,14.6-15,21.9-22.5h2.2c13.9,0,27.9-.1,41.8.1,3.5,0,7,.3,10.4,1.2,12.5,3.2,18.5,14.2,15.2,27.6Z"/>
  <path class="st2" d="M593.3.4c2.8.8,5.2,3,6.7,5.4,1.8,3,2.5,6.3,3.4,9.7,1,3.7,1.8,7.5,2.8,11.3,1.8,7.5,3.7,15,5.6,22.5,3,12,6,24,8.9,36,.1.4.2.9.3,1.6h-82.9c7-7.6,13.7-14.9,20.5-22.3h29.5c-2.7-10.3-5.3-20.4-8.1-31-16.6,18-33,35.7-49.4,53.4h-27.1c.9-1,1.5-1.8,2.2-2.5,21.8-23.8,43.7-47.5,65.4-71.3,2.9-3.2,6-6.2,9.5-8.7,3.1-2.2,6.7-4.5,10.7-4.5.6.1,1.3.2,2,.4Z"/>
  <path class="st2" d="M611,.7h28c4.9,11.6,9.8,23.1,14.9,35,12.2-11.8,24.1-23.4,36.1-35h27.3c.2.2.4.5.6.7-.7.5-1.6.9-2.2,1.5-19,18-38,36-56.9,54-1,1-1.9,2.3-2.3,3.6-3,8.8-5.8,17.6-8.7,26.4h-21.9c.3-1,.5-1.8.8-2.7,2.6-7.9,5.1-15.8,7.8-23.7.6-1.7.5-3.1-.2-4.7-7.5-17.6-14.9-35.2-22.4-52.9-.3-.5-.5-1.2-.9-2.2Z"/>
  <path class="st0" d="M370.3,59.3c.7,2.8,5.2,18.9,7.5,27-.2.2-.5.4-.7.6h-83c7-7.6,13.6-14.9,20.4-22.3h29.6c-2.7-10.4-5.4-20.5-8.2-31.1-16.7,18-33.1,35.8-49.4,53.4h-26.9c.5-.7.8-1.2,1.2-1.6,23.2-25.3,46.4-50.7,69.7-75.9,2.2-2.4,4.7-4.4,7.4-6,4.4-2.6,10-4.9,14.7-1.5,3.7,2.6,5.3,7.1,6.2,11.3,1.2,5.5,2.7,10.9,4,16.4,2.6,9.9,5.1,19.8,7.5,29.7Z"/>
  <path class="st0" d="M105.7,87.7c-4.3-1.3-6.9-4.3-9.3-8-8-12.6-16.3-25.1-24.4-37.6-.5-.7-1-1.4-1.7-2.4-5.2,16-10.4,31.6-15.5,47.3h-21.8c.2-.7.3-1.4.5-2,7.9-24.2,15.8-48.5,23.9-72.7.9-2.8,2.6-5.6,4.6-7.7,5.6-6,14-5.1,18.5,1.8,8.6,13.1,17.1,26.2,25.6,39.3.4.7.9,1.4,1.6,2.4,5.3-16.1,10.4-31.7,15.6-47.4h21.8c-.2.9-.4,1.7-.7,2.5-7.9,24.1-15.8,48.2-23.7,72.2-.2.7-.5,1.5-.8,2.2-1.8,4.7-4.7,8.4-9.6,10.1h-4.6Z"/>
  <path class="st0" d="M0,86.3c2.2-6.4,4.4-12.7,6.5-19.1C13.6,45.7,20.6,24.2,27.6,2.7c.2-.6.4-1.2.7-1.9h21.9c-9.5,28.9-18.9,57.6-28.3,86.5H0v-1Z"/>
  <path class="st0" d="M241.9.6c-7.5,7.8-14.5,15.1-21.5,22.5h-49.9c-3.9,0-5.6,2-5.3,6.2,1.1.2,2.4.6,3.7.6,11.3,0,22.6-.1,33.9.1,3.7.1,7.5.4,11,1.5,10.2,3.1,14.8,12.4,12.2,23.7-4.2,18.3-20.8,31.7-40,31.9-21.2.2-42.4.1-63.6.1-.4,0-.7-.1-1.8-.1,7.3-7.6,14.3-14.9,21.3-22.2h10.9c13,0,26,.1,39-.1,2.9,0,5.8-1,8.5-2,1.4-.5,2.7-1.9,3.5-3.3,1.7-2.7.8-5.1-2.1-6.2-1.8-.6-3.8-.9-5.7-.9-11.7-.1-23.4,0-35.1-.1-2.9,0-5.8-.3-8.5-1-10.1-2.5-15.2-10.9-12.9-21.1,3.5-15.9,18.2-28.6,34.6-29.3,9.6-.4,19.3-.2,29-.2h35.5c.9-.1,1.8-.1,3.3-.1Z"/>
  <path class="st0" d="M255.4,87h-22c7-21.4,13.9-42.5,20.9-63.9h-29.2c7.4-7.8,14.4-15,21.4-22.4h72.5c-7.3,7.6-14.4,14.9-21.5,22.3h-21.2c-6.9,21.4-13.9,42.6-20.9,64Z"/>
  <path class="st3" d="M427.7,43.2c-.6.4-1.2.8-1.8,1.3-15.4,13.5-32.9,29-48.4,42.6h-23.1l49.9-44.2c-.6-1.1-1.1-1.9-1.5-2.7-7.6-13.3-15.2-26.6-22.7-39.9h23.4c.3.8.6,1.6,1,2.3,7.2,12.6,14.5,25.3,21.7,37.9.4.7.8,1.4,1.5,2.7Z"/>
  <path class="st1" d="M460.8,42.6l-48.9,43.7-.8.7c-7,.1-16.2,0-22.9-.5,16.5-14.5,33-29.1,49.5-43.7-8.2-14.3-16.3-28.5-24.4-42.6h23.4c.3.6.5,1.3.9,1.9,7.4,13,14.5,25.3,21.8,38.3.4.6,0,.1,1.4,2.2Z"/>
</svg>
